src/lib/packages/icons/src/assets/line/cheese.svg

<svg width="24" height="24" viewBox="0 0 24 24" fill="none" xmlns="http://www.w3.org/2000/svg">
<path d="M18.02 15C18.02 15.55 17.57 16 17.02 16C16.47 16 16.02 15.55 16.02 15C16.02 14.45 16.46 14 17.02 14C17.57 14 18.02 14.45 18.02 15ZM13.02 16.25C12.61 16.25 12.27 16.59 12.27 17C12.27 17.41 12.61 17.75 13.02 17.75C13.43 17.75 13.77 17.41 13.77 17C13.77 16.59 13.44 16.25 13.02 16.25ZM8.02002 14.75C7.33002 14.75 6.77002 15.31 6.77002 16C6.77002 16.69 7.34002 17.25 8.02002 17.25C8.70002 17.25 9.27002 16.69 9.27002 16C9.27002 15.31 8.71002 14.75 8.02002 14.75ZM21.75 12V18C21.75 19.52 20.52 20.75 19 20.75H5C3.48 20.75 2.25 19.52 2.25 18V12.78C2.25 12.05 2.61001 11.36 3.20001 10.94L13.56 3.63003C14.12 3.24003 14.81 3.14002 15.42 3.37002C19.06 4.73002 21.54 8.10003 21.75 11.96C21.75 11.97 21.75 11.99 21.75 12ZM5.35999 11.25H20.15C19.7 8.33002 17.72 5.83002 14.89 4.78002C14.84 4.76002 14.79 4.75003 14.74 4.75003C14.63 4.75003 14.52 4.79003 14.42 4.86003L5.35999 11.25ZM20.25 18V12.75H3.76001C3.76001 12.75 3.76001 12.77 3.76001 12.78V18C3.76001 18.69 4.32001 19.25 5.01001 19.25H19.01C19.7 19.25 20.26 18.69 20.26 18H20.25Z" fill="currentColor"/>
</svg>

<svg xmlns="http://www.w3.org/2000/svg" width="24" height="24" fill="none"><path fill="currentColor" d="M18.02 15c0 .55-.45 1-1 1s-1-.45-1-1 .44-1 1-1c.55 0 1 .45 1 1Zm-5 1.25c-.41 0-.75.34-.75.75s.34.75.75.75.75-.34.75-.75-.33-.75-.75-.75Zm-5-1.5c-.69 0-1.25.56-1.25 1.25s.57 1.25 1.25 1.25 1.25-.56 1.25-1.25-.56-1.25-1.25-1.25ZM21.75 12v6c0 1.52-1.23 2.75-2.75 2.75H5c-1.52 0-2.75-1.23-2.75-2.75v-5.22c0-.73.36-1.42.95-1.84l10.36-7.31c.56-.39 1.25-.49 1.86-.26a9.738 9.738 0 0 1 6.33 8.59V12Zm-16.39-.75h14.79a8.225 8.225 0 0 0-5.26-6.47.401.401 0 0 0-.15-.03c-.11 0-.22.04-.32.11l-9.06 6.39ZM20.25 18v-5.25H3.76V18c0 .69.56 1.25 1.25 1.25h14c.69 0 1.25-.56 1.25-1.25h-.01Z"/></svg>
